X: 1
T: Fred Picknell's March
C: Andy May
S: as taught by Hanneke Cassel
R: march
Z: 2019 John Chambers <jc:trillian.mit.edu>
S: file in Concord Slow Scottish collection 2019-2-23
M: 4/4
L: 1/8
K: G
|:\
"G"G2d2 d4 | d2cB AGAB | "C"c2g2 g2fe | "D"d2dc "G"B2gf |
"C"e2dc Bcd2 | "D"A2Bc "Em"B2ed | "Am"cBAG E3D | "D"D4- D4 :|
|:\
"D"D2d2 d2AB | cdBc A2BA | "C"G2g2 g2fe | "D"d2~dc "G"B2ba |
"C"g2gf efg2 | "D"agfe "G"d2gf | "C"edcB "D"A3G |1 "G"G4- G2FE :|2 "G"G4- G4 |]
